Newaita-dark/.places-default/64/folder-tar.svg

<?xml version="1.0" encoding="UTF-8"?>
<svg xmlns="http://www.w3.org/2000/svg" xmlns:xlink="http://www.w3.org/1999/xlink" width="64px" height="64px" viewBox="0 0 64 64" version="1.1">
<defs>
<linearGradient id="linear0" gradientUnits="userSpaceOnUse" x1="254" y1="233.5" x2="254" y2="254.666672" gradientTransform="matrix(0.125012,0,0,0.125012,-0.00000763012,26.877574)">
<stop offset="0" style="stop-color:rgb(0%,0%,0%);stop-opacity:0.27451;"/>
<stop offset="1" style="stop-color:rgb(0%,0%,0%);stop-opacity:0;"/>
</linearGradient>
<radialGradient id="radial0" gradientUnits="userSpaceOnUse" cx="450.908936" cy="189.579361" fx="450.908936" fy="189.579361" r="21.166656" gradientTransform="matrix(0.000000348341,-0.156265,-0.281277,-0.000000203077,108.230425,127.190669)">
<stop offset="0" style="stop-color:rgb(0%,0%,0%);stop-opacity:0.313726;"/>
<stop offset="0.222222" style="stop-color:rgb(0%,0%,0%);stop-opacity:0.27451;"/>
<stop offset="1" style="stop-color:rgb(0%,0%,0%);stop-opacity:0;"/>
</radialGradient>
<radialGradient id="radial1" gradientUnits="userSpaceOnUse" cx="450.908936" cy="189.579361" fx="450.908936" fy="189.579361" r="21.166656" gradientTransform="matrix(-0.000000348341,0.156265,0.281277,0.000000203077,-44.724356,-15.054954)">
<stop offset="0" style="stop-color:rgb(0%,0%,0%);stop-opacity:0.313726;"/>
<stop offset="0.222222" style="stop-color:rgb(0%,0%,0%);stop-opacity:0.27451;"/>
<stop offset="1" style="stop-color:rgb(0%,0%,0%);stop-opacity:0;"/>
</radialGradient>
<radialGradient id="radial2" gradientUnits="userSpaceOnUse" cx="450.908936" cy="189.579361" fx="450.908936" fy="189.579361" r="21.166656" gradientTransform="matrix(-0.000000348341,-0.156265,0.281277,-0.000000203077,-44.724356,127.190669)">
<stop offset="0" style="stop-color:rgb(0%,0%,0%);stop-opacity:0.313726;"/>
<stop offset="0.222222" style="stop-color:rgb(0%,0%,0%);stop-opacity:0.27451;"/>
<stop offset="1" style="stop-color:rgb(0%,0%,0%);stop-opacity:0;"/>
</radialGradient>
<radialGradient id="radial3" gradientUnits="userSpaceOnUse" cx="450.908936" cy="189.579361" fx="450.908936" fy="189.579361" r="21.166656" gradientTransform="matrix(0.000000348341,0.156265,-0.281277,0.000000203077,108.230422,-15.054955)">
<stop offset="0" style="stop-color:rgb(0%,0%,0%);stop-opacity:0.313726;"/>
<stop offset="0.222222" style="stop-color:rgb(0%,0%,0%);stop-opacity:0.27451;"/>
<stop offset="1" style="stop-color:rgb(0%,0%,0%);stop-opacity:0;"/>
</radialGradient>
<linearGradient id="linear1" gradientUnits="userSpaceOnUse" x1="254" y1="-147.5" x2="254" y2="-31.083334" gradientTransform="matrix(0.125012,0,0,0.125012,0.00000249951,26.877563)">
<stop offset="0" style="stop-color:rgb(64.313728%,64.313728%,64.313728%);stop-opacity:0;"/>
<stop offset="1" style="stop-color:rgb(100%,100%,100%);stop-opacity:0.196078;"/>
</linearGradient>
<linearGradient id="linear2" gradientUnits="userSpaceOnUse" x1="254" y1="233.5" x2="254" y2="-105.166656" gradientTransform="matrix(0.125012,0,0,0.125012,-0.00000362479,26.877566)">
<stop offset="0" style="stop-color:rgb(34.509805%,34.509805%,34.509805%);stop-opacity:0;"/>
<stop offset="1" style="stop-color:rgb(98.039216%,98.039216%,98.039216%);stop-opacity:0.196078;"/>
</linearGradient>
</defs>
<g id="surface1">
<path style=" stroke:none;fill-rule:nonzero;fill:url(#linear0);" d="M 7.9375 56.066406 L 55.566406 56.066406 L 55.566406 58.714844 L 7.9375 58.714844 Z M 7.9375 56.066406 "/>
<path style=" stroke:none;fill-rule:nonzero;fill:url(#radial0);" d="M 55.566406 56.066406 L 60.859375 56.066406 L 60.859375 53.421875 L 55.566406 53.421875 Z M 55.566406 56.066406 "/>
<path style=" stroke:none;fill-rule:nonzero;fill:url(#radial1);" d="M 7.9375 56.066406 L 2.644531 56.066406 L 2.644531 58.714844 L 7.9375 58.714844 Z M 7.9375 56.066406 "/>
<path style=" stroke:none;fill-rule:nonzero;fill:url(#radial2);" d="M 7.9375 56.066406 L 2.644531 56.066406 L 2.644531 53.421875 L 7.9375 53.421875 Z M 7.9375 56.066406 "/>
<path style=" stroke:none;fill-rule:nonzero;fill:url(#radial3);" d="M 55.566406 56.066406 L 60.859375 56.066406 L 60.859375 58.714844 L 55.566406 58.714844 Z M 55.566406 56.066406 "/>
<path style=" stroke:none;fill-rule:nonzero;fill:rgb(63.137257%,53.333336%,49.803922%);fill-opacity:1;" d="M 14.554688 8.4375 L 57.550781 8.4375 C 59.015625 8.4375 60.199219 9.621094 60.199219 11.085938 L 60.199219 21.007812 C 60.199219 22.46875 59.015625 23.652344 57.550781 23.652344 L 14.554688 23.652344 C 13.09375 23.652344 11.90625 22.46875 11.90625 21.007812 L 11.90625 11.085938 C 11.90625 9.621094 13.09375 8.4375 14.554688 8.4375 Z M 14.554688 8.4375 "/>
<path style=" stroke:none;fill-rule:nonzero;fill:url(#linear1);" d="M 14.554688 8.4375 L 57.550781 8.4375 C 59.015625 8.4375 60.199219 9.621094 60.199219 11.085938 L 60.199219 21.007812 C 60.199219 22.46875 59.015625 23.652344 57.550781 23.652344 L 14.554688 23.652344 C 13.09375 23.652344 11.90625 22.46875 11.90625 21.007812 L 11.90625 11.085938 C 11.90625 9.621094 13.09375 8.4375 14.554688 8.4375 Z M 14.554688 8.4375 "/>
<path style=" stroke:none;fill-rule:nonzero;fill:rgb(100%,100%,100%);fill-opacity:0.392157;" d="M 14.554688 8.609375 C 13.085938 8.609375 11.90625 9.789062 11.90625 11.253906 L 11.90625 11.585938 C 11.90625 10.121094 13.085938 8.941406 14.554688 8.941406 L 57.550781 8.941406 C 59.019531 8.941406 60.199219 10.121094 60.199219 11.585938 L 60.199219 11.253906 C 60.199219 9.789062 59.019531 8.609375 57.550781 8.609375 Z M 14.554688 8.609375 "/>
<path style=" stroke:none;fill-rule:nonzero;fill:rgb(12.941177%,12.941177%,12.941177%);fill-opacity:1;" d="M 14.554688 8.25 C 12.988281 8.25 11.71875 9.519531 11.71875 11.085938 L 11.71875 21.007812 C 11.71875 22.574219 12.988281 23.839844 14.554688 23.839844 L 57.550781 23.839844 C 59.117188 23.839844 60.386719 22.574219 60.386719 21.007812 L 60.386719 11.085938 C 60.386719 9.519531 59.117188 8.25 57.550781 8.25 Z M 14.554688 8.625 L 57.550781 8.625 C 58.917969 8.625 60.011719 9.71875 60.011719 11.085938 L 60.011719 21.007812 C 60.011719 22.371094 58.917969 23.464844 57.550781 23.464844 L 14.554688 23.464844 C 13.1875 23.464844 12.09375 22.371094 12.09375 21.007812 L 12.09375 11.085938 C 12.09375 9.71875 13.1875 8.625 14.554688 8.625 Z M 14.554688 8.625 "/>
<path style=" stroke:none;fill-rule:nonzero;fill:rgb(73.725492%,66.666669%,64.313728%);fill-opacity:1;" d="M 5.292969 13.730469 C 3.828125 13.730469 2.644531 14.910156 2.644531 16.375 L 2.644531 53.421875 C 2.644531 54.886719 3.828125 56.066406 5.292969 56.066406 L 58.214844 56.066406 C 59.679688 56.066406 60.859375 54.886719 60.859375 53.421875 L 60.859375 20.34375 L 25.136719 20.34375 C 23.671875 20.34375 22.492188 19.164062 22.492188 17.699219 L 22.492188 13.730469 Z M 5.292969 13.730469 "/>
<path style=" stroke:none;fill-rule:nonzero;fill:url(#linear2);" d="M 5.292969 13.730469 C 3.828125 13.730469 2.644531 14.910156 2.644531 16.375 L 2.644531 53.421875 C 2.644531 54.886719 3.828125 56.066406 5.292969 56.066406 L 58.214844 56.066406 C 59.679688 56.066406 60.859375 54.886719 60.859375 53.421875 L 60.859375 20.34375 L 25.136719 20.34375 C 23.671875 20.34375 22.492188 19.164062 22.492188 17.699219 L 22.492188 13.730469 Z M 5.292969 13.730469 "/>
<path style=" stroke:none;fill-rule:nonzero;fill:rgb(0%,0%,0%);fill-opacity:0.196078;" d="M 5.292969 56.066406 C 3.828125 56.066406 2.644531 54.886719 2.644531 53.421875 L 2.644531 53.089844 C 2.644531 54.558594 3.828125 55.738281 5.292969 55.738281 L 58.214844 55.738281 C 59.679688 55.738281 60.859375 54.558594 60.859375 53.089844 L 60.859375 53.421875 C 60.859375 54.886719 59.679688 56.066406 58.214844 56.066406 Z M 5.292969 56.066406 "/>
<path style=" stroke:none;fill-rule:nonzero;fill:rgb(100%,100%,100%);fill-opacity:0.392157;" d="M 5.292969 13.902344 C 3.828125 13.902344 2.644531 15.082031 2.644531 16.546875 L 2.644531 16.878906 C 2.644531 15.414062 3.828125 14.234375 5.292969 14.234375 L 22.492188 14.234375 L 22.492188 13.902344 Z M 5.292969 13.902344 "/>
<path style=" stroke:none;fill-rule:nonzero;fill:rgb(100%,100%,100%);fill-opacity:0.392157;" d="M 24.972656 20.683594 C 23.507812 20.683594 22.328125 19.503906 22.328125 18.035156 L 22.328125 17.707031 C 22.328125 19.171875 23.507812 20.355469 24.972656 20.351562 L 60.859375 20.351562 L 60.859375 20.683594 Z M 24.972656 20.683594 "/>
<path style=" stroke:none;fill-rule:nonzero;fill:rgb(12.941177%,12.941177%,12.941177%);fill-opacity:1;" d="M 5.292969 13.542969 C 3.726562 13.542969 2.457031 14.808594 2.457031 16.375 L 2.457031 53.421875 C 2.457031 54.988281 3.726562 56.253906 5.292969 56.253906 L 58.214844 56.253906 C 59.78125 56.253906 61.046875 54.988281 61.046875 53.421875 L 61.046875 19.96875 L 25.136719 19.96875 C 23.773438 19.96875 22.679688 18.878906 22.679688 17.511719 L 22.679688 13.542969 Z M 5.292969 13.917969 L 22.304688 13.917969 L 22.304688 17.511719 C 22.304688 19.078125 23.570312 20.34375 25.136719 20.34375 L 60.671875 20.34375 L 60.671875 53.421875 C 60.671875 54.785156 59.578125 55.878906 58.214844 55.878906 L 5.292969 55.878906 C 3.925781 55.878906 2.832031 54.785156 2.832031 53.421875 L 2.832031 16.375 C 2.832031 15.011719 3.925781 13.917969 5.292969 13.917969 Z M 5.292969 13.917969 "/>
<path style=" stroke:none;fill-rule:nonzero;fill:rgb(55.29412%,43.137255%,38.82353%);fill-opacity:1;" d="M 25.136719 26.960938 C 23.671875 26.960938 22.492188 28.140625 22.492188 29.605469 L 22.492188 35.5625 L 26.460938 35.5625 L 26.460938 34.898438 C 26.460938 34.167969 27.050781 33.574219 27.785156 33.574219 C 28.515625 33.574219 29.105469 34.167969 29.105469 34.898438 L 29.105469 35.5625 L 34.398438 35.5625 L 34.398438 34.898438 C 34.398438 34.167969 34.988281 33.574219 35.722656 33.574219 C 36.457031 33.574219 37.046875 34.167969 37.046875 34.898438 L 37.046875 35.5625 L 41.015625 35.5625 L 41.015625 29.605469 C 41.015625 28.140625 39.835938 26.960938 38.367188 26.960938 Z M 22.492188 36.882812 L 22.492188 42.835938 C 22.492188 44.304688 23.671875 45.484375 25.136719 45.484375 L 38.367188 45.484375 C 39.835938 45.484375 41.015625 44.304688 41.015625 42.835938 L 41.015625 36.882812 L 37.046875 36.882812 L 37.046875 37.546875 C 37.046875 38.277344 36.457031 38.867188 35.722656 38.867188 C 34.988281 38.867188 34.398438 38.277344 34.398438 37.546875 L 34.398438 36.882812 L 29.105469 36.882812 L 29.105469 37.546875 C 29.105469 38.277344 28.515625 38.867188 27.785156 38.867188 C 27.050781 38.867188 26.460938 38.277344 26.460938 37.546875 L 26.460938 36.882812 Z M 22.492188 36.882812 "/>
<path style=" stroke:none;fill-rule:nonzero;fill:rgb(0%,0%,0%);fill-opacity:0.235294;" d="M 25.136719 26.960938 C 23.671875 26.960938 22.492188 28.140625 22.492188 29.605469 L 22.492188 35.5625 L 22.523438 35.5625 L 22.523438 30.082031 C 22.523438 28.617188 23.707031 27.4375 25.171875 27.4375 L 38.402344 27.4375 C 39.722656 27.4375 40.8125 28.398438 41.015625 29.660156 L 41.015625 29.605469 C 41.015625 28.140625 39.835938 26.960938 38.367188 26.960938 Z M 29.105469 35.078125 L 29.105469 35.5625 L 29.140625 35.5625 L 29.140625 35.375 C 29.140625 35.273438 29.128906 35.175781 29.105469 35.078125 Z M 37.046875 35.078125 L 37.046875 35.5625 L 37.078125 35.5625 L 37.078125 35.375 C 37.078125 35.273438 37.066406 35.175781 37.046875 35.078125 Z M 22.492188 36.882812 L 22.492188 42.835938 C 22.492188 42.980469 22.503906 43.121094 22.523438 43.257812 L 22.523438 37.359375 L 26.460938 37.359375 L 26.460938 36.882812 Z M 29.105469 36.882812 L 29.105469 37.546875 C 29.105469 38.277344 28.515625 38.867188 27.785156 38.867188 C 27.152344 38.867188 26.628906 38.429688 26.496094 37.839844 L 26.496094 38.019531 C 26.496094 38.753906 27.085938 39.34375 27.816406 39.34375 C 28.550781 39.34375 29.140625 38.753906 29.140625 38.019531 L 29.140625 37.359375 L 34.398438 37.359375 L 34.398438 36.882812 Z M 37.046875 36.882812 L 37.046875 37.546875 C 37.046875 38.277344 36.457031 38.867188 35.722656 38.867188 C 35.089844 38.867188 34.566406 38.429688 34.433594 37.839844 L 34.433594 38.019531 C 34.433594 38.753906 35.023438 39.34375 35.753906 39.34375 C 36.488281 39.34375 37.078125 38.753906 37.078125 38.019531 L 37.078125 37.359375 L 41.015625 37.359375 L 41.015625 36.882812 Z M 37.046875 36.882812 "/>
<path style=" stroke:none;fill-rule:nonzero;fill:rgb(100%,100%,100%);fill-opacity:0.392157;" d="M 27.785156 33.59375 C 27.050781 33.59375 26.460938 34.183594 26.460938 34.914062 L 26.460938 35.398438 C 26.460938 34.667969 27.050781 34.078125 27.785156 34.078125 C 28.515625 34.078125 29.105469 34.667969 29.105469 35.398438 L 29.105469 34.914062 C 29.105469 34.183594 28.515625 33.59375 27.785156 33.59375 Z M 35.722656 33.59375 C 34.988281 33.59375 34.398438 34.183594 34.398438 34.914062 L 34.398438 35.398438 C 34.398438 34.667969 34.988281 34.078125 35.722656 34.078125 C 36.457031 34.078125 37.046875 34.667969 37.046875 35.398438 L 37.046875 34.914062 C 37.046875 34.183594 36.457031 33.59375 35.722656 33.59375 Z M 22.492188 35.578125 L 22.492188 36.0625 L 26.460938 36.0625 L 26.460938 35.578125 Z M 29.105469 35.578125 L 29.105469 36.0625 L 34.398438 36.0625 L 34.398438 35.578125 Z M 37.046875 35.578125 L 37.046875 36.0625 L 41.015625 36.0625 L 41.015625 35.578125 Z M 22.492188 42.855469 L 22.492188 43.339844 C 22.492188 44.804688 23.671875 45.984375 25.136719 45.984375 L 38.367188 45.984375 C 39.835938 45.984375 41.015625 44.804688 41.015625 43.339844 L 41.015625 42.855469 C 41.015625 44.320312 39.835938 45.5 38.367188 45.5 L 25.136719 45.5 C 23.671875 45.5 22.492188 44.320312 22.492188 42.855469 Z M 22.492188 42.855469 "/>
<path style="fill:none;stroke-width:11.338583;stroke-linecap:round;stroke-linejoin:round;stroke:rgb(12.941177%,12.941177%,12.941177%);stroke-opacity:1;stroke-miterlimit:4;" d="M 759.966837 815.119053 C 715.679725 815.119053 680.013838 850.784941 680.013838 895.072052 L 680.013838 1075.172973 L 800.002386 1075.172973 L 800.002386 1055.096149 C 800.002386 1033.011643 817.835329 1015.0606 840.037935 1015.0606 C 862.122441 1015.0606 879.955385 1033.011643 879.955385 1055.096149 L 879.955385 1075.172973 L 1039.979482 1075.172973 L 1039.979482 1055.096149 C 1039.979482 1033.011643 1057.812425 1015.0606 1080.015031 1015.0606 C 1102.217636 1015.0606 1120.05058 1033.011643 1120.05058 1055.096149 L 1120.05058 1075.172973 L 1240.039128 1075.172973 L 1240.039128 895.072052 C 1240.039128 850.784941 1204.37324 815.119053 1159.96803 815.119053 Z M 680.013838 1115.090423 L 680.013838 1295.073245 C 680.013838 1339.478456 715.679725 1375.144343 759.966837 1375.144343 L 1159.96803 1375.144343 C 1204.37324 1375.144343 1240.039128 1339.478456 1240.039128 1295.073245 L 1240.039128 1115.090423 L 1120.05058 1115.090423 L 1120.05058 1135.167247 C 1120.05058 1157.251754 1102.217636 1175.084697 1080.015031 1175.084697 C 1057.812425 1175.084697 1039.979482 1157.251754 1039.979482 1135.167247 L 1039.979482 1115.090423 L 879.955385 1115.090423 L 879.955385 1135.167247 C 879.955385 1157.251754 862.122441 1175.084697 840.037935 1175.084697 C 817.835329 1175.084697 800.002386 1157.251754 800.002386 1135.167247 L 800.002386 1115.090423 Z M 680.013838 1115.090423 " transform="matrix(0.0330761,0,0,0.0330761,0,0)"/>
</g>
</svg>

<svg xmlns="http://www.w3.org/2000/svg" width="64pt" height="64pt" viewBox="0 0 64 64"><defs><linearGradient id="a" gradientUnits="userSpaceOnUse" x1="254" y1="233.5" x2="254" y2="254.667" gradientTransform="translate(0 26.878) scale(.12501)"><stop offset="0" stop-opacity=".275"/><stop offset="1" stop-opacity="0"/></linearGradient><radialGradient id="b" gradientUnits="userSpaceOnUse" cx="450.909" cy="189.579" fx="450.909" fy="189.579" r="21.167" gradientTransform="matrix(0 -.15626 -.28128 0 108.23 127.19)"><stop offset="0" stop-opacity=".314"/><stop offset=".222" stop-opacity=".275"/><stop offset="1" stop-opacity="0"/></radialGradient><radialGradient id="c" gradientUnits="userSpaceOnUse" cx="450.909" cy="189.579" fx="450.909" fy="189.579" r="21.167" gradientTransform="matrix(0 .15626 .28128 0 -44.724 -15.055)"><stop offset="0" stop-opacity=".314"/><stop offset=".222" stop-opacity=".275"/><stop offset="1" stop-opacity="0"/></radialGradient><radialGradient id="d" gradientUnits="userSpaceOnUse" cx="450.909" cy="189.579" fx="450.909" fy="189.579" r="21.167" gradientTransform="matrix(0 -.15626 .28128 0 -44.724 127.19)"><stop offset="0" stop-opacity=".314"/><stop offset=".222" stop-opacity=".275"/><stop offset="1" stop-opacity="0"/></radialGradient><radialGradient id="e" gradientUnits="userSpaceOnUse" cx="450.909" cy="189.579" fx="450.909" fy="189.579" r="21.167" gradientTransform="matrix(0 .15626 -.28128 0 108.23 -15.055)"><stop offset="0" stop-opacity=".314"/><stop offset=".222" stop-opacity=".275"/><stop offset="1" stop-opacity="0"/></radialGradient><linearGradient id="f" gradientUnits="userSpaceOnUse" x1="254" y1="-147.5" x2="254" y2="-31.083" gradientTransform="translate(0 26.878) scale(.12501)"><stop offset="0" stop-color="#a4a4a4" stop-opacity="0"/><stop offset="1" stop-color="#fff" stop-opacity=".196"/></linearGradient><linearGradient id="g" gradientUnits="userSpaceOnUse" x1="254" y1="233.5" x2="254" y2="-105.167" gradientTransform="translate(0 26.878) scale(.12501)"><stop offset="0" stop-color="#585858" stop-opacity="0"/><stop offset="1" stop-color="#fafafa" stop-opacity=".196"/></linearGradient><linearGradient id="h" gradientUnits="userSpaceOnUse" x1="254" y1="-147.5" x2="254" y2="233.5" gradientTransform="translate(0 26.878) scale(.12501)"><stop offset="0" stop-color="#a4a4a4" stop-opacity="0"/><stop offset="1" stop-color="#fff" stop-opacity=".196"/></linearGradient></defs><path d="M7.938 56.066h47.628v2.649H7.937zm0 0" fill="url(#a)"/><path d="M55.566 56.066h5.293v-2.644h-5.293zm0 0" fill="url(#b)"/><path d="M7.938 56.066H2.644v2.649h5.292zm0 0" fill="url(#c)"/><path d="M7.938 56.066H2.644v-2.644h5.292zm0 0" fill="url(#d)"/><path d="M55.566 56.066h5.293v2.649h-5.293zm0 0" fill="url(#e)"/><path d="M14.555 8.438H57.55a2.646 2.646 0 0 1 2.648 2.648v9.922a2.645 2.645 0 0 1-2.648 2.644H14.555a2.647 2.647 0 0 1-2.649-2.644v-9.922a2.648 2.648 0 0 1 2.649-2.649zm0 0" fill="#8d6e63"/><path d="M14.555 8.438H57.55a2.646 2.646 0 0 1 2.648 2.648v9.922a2.645 2.645 0 0 1-2.648 2.644H14.555a2.647 2.647 0 0 1-2.649-2.644v-9.922a2.648 2.648 0 0 1 2.649-2.649zm0 0" fill="url(#f)"/><path d="M14.555 8.438a2.64 2.64 0 0 0-2.649 2.648v.328a2.64 2.64 0 0 1 2.649-2.644H57.55a2.64 2.64 0 0 1 2.648 2.644v-.328a2.64 2.64 0 0 0-2.648-2.649zm0 0" fill="#e6e6e6" fill-opacity=".588"/><path d="M14.555 8.25a2.836 2.836 0 0 0-2.836 2.836v9.922a2.832 2.832 0 0 0 2.836 2.832H57.55a2.832 2.832 0 0 0 2.836-2.832v-9.922A2.836 2.836 0 0 0 57.55 8.25zm0 .375H57.55a2.45 2.45 0 0 1 2.46 2.46v9.923a2.45 2.45 0 0 1-2.46 2.457H14.555a2.45 2.45 0 0 1-2.461-2.457v-9.922a2.45 2.45 0 0 1 2.46-2.461zm0 0" fill="#212121"/><path d="M5.293 13.73a2.642 2.642 0 0 0-2.648 2.645v37.047a2.642 2.642 0 0 0 2.648 2.644h52.922a2.639 2.639 0 0 0 2.644-2.644V20.344H25.137a2.639 2.639 0 0 1-2.645-2.645V13.73zm0 0" fill="#bcaaa4"/><path d="M5.293 13.73a2.642 2.642 0 0 0-2.648 2.645v37.047a2.642 2.642 0 0 0 2.648 2.644h52.922a2.639 2.639 0 0 0 2.644-2.644V20.344H25.137a2.639 2.639 0 0 1-2.645-2.645V13.73zm0 0" fill="url(#g)"/><path d="M5.293 56.066a2.642 2.642 0 0 1-2.648-2.644v-.332a2.643 2.643 0 0 0 2.648 2.648h52.922a2.64 2.64 0 0 0 2.644-2.648v.332a2.639 2.639 0 0 1-2.644 2.644zm0 0" fill-opacity=".196"/><path d="M5.293 13.73a2.642 2.642 0 0 0-2.648 2.645v.332a2.642 2.642 0 0 1 2.648-2.645h17.2v-.332zm0 0M24.973 20.512a2.64 2.64 0 0 1-2.645-2.649v-.328a2.637 2.637 0 0 0 2.645 2.645h35.886v.332zm0 0" fill="#e6e6e6" fill-opacity=".937"/><path d="M5.293 13.543a2.832 2.832 0 0 0-2.836 2.832v37.047a2.832 2.832 0 0 0 2.836 2.832h52.922a2.83 2.83 0 0 0 2.832-2.832V19.969h-35.91a2.447 2.447 0 0 1-2.457-2.457v-3.969zm0 .375h17.012v3.594a2.83 2.83 0 0 0 2.832 2.832h35.535v33.078a2.449 2.449 0 0 1-2.457 2.457H5.293a2.45 2.45 0 0 1-2.461-2.457V16.375a2.45 2.45 0 0 1 2.461-2.457zm0 0" fill="#212121"/><path d="M25.137 26.96a2.639 2.639 0 0 0-2.645 2.645v5.293h2.645v2.649h-2.645v5.289a2.64 2.64 0 0 0 2.645 2.648h13.23a2.64 2.64 0 0 0 2.649-2.648v-5.29h-2.649v-2.648h2.649v-5.293a2.64 2.64 0 0 0-2.649-2.644zm3.968 7.938h5.293v2.649h-5.293zm0 0" fill="#8d6e63"/><path d="M25.137 26.96a2.639 2.639 0 0 0-2.645 2.645v5.293h2.645v2.649h-2.645v5.289a2.64 2.64 0 0 0 2.645 2.648h13.23a2.64 2.64 0 0 0 2.649-2.648v-5.29h-2.649v-2.648h2.649v-5.293a2.64 2.64 0 0 0-2.649-2.644zm3.968 7.938h5.293v2.649h-5.293zm0 0" fill="url(#h)"/><path d="M25.137 26.773a2.83 2.83 0 0 0-2.832 2.832v5.48h2.644v2.274h-2.644v5.477a2.832 2.832 0 0 0 2.832 2.836h13.23a2.836 2.836 0 0 0 2.836-2.836v-5.477h-2.648v-2.273h2.648v-5.48a2.832 2.832 0 0 0-2.836-2.833zm0 .375h13.23a2.45 2.45 0 0 1 2.461 2.457v5.106H38.18v3.023h2.648v5.102a2.45 2.45 0 0 1-2.46 2.46H25.136a2.45 2.45 0 0 1-2.457-2.46v-5.102h2.644v-3.023H22.68v-5.106a2.449 2.449 0 0 1 2.457-2.457zm3.781 7.563v3.023h5.668v-3.023zm.375.375h4.918v2.273h-4.918zm0 0" fill="#212121"/></svg>
